flags/fk.svg

<svg width="512" height="512" viewBox="0 0 512 512" fill="none" xmlns="http://www.w3.org/2000/svg">
<rect width="512" height="512" fill="var(--flag-palette-navy, #002266)"/>
<rect width="256" height="256" fill="var(--flag-palette-navy, #002266)"/>
<path d="M232 256H256V232L152 128L256 24V0H232L128 104L24 0H0V24L104 128L0 232V256H24L128 152L232 256Z" fill="var(--flag-palette-white, #eeeeee)"/>
<path d="M256 160V96H160V0H96V96H0V160H96V256H160V160H256Z" fill="var(--flag-palette-white, #eeeeee)"/>
<path d="M256 144V112H144V0H112V112H0V144H112V256H144V144H256Z" fill="var(--flag-palette-bright-red, #d80027)"/>
<path d="M0 16V0L96 96H80L0 16Z" fill="var(--flag-palette-bright-red, #d80027)"/>
<path d="M256 240L256 256L160 160L176 160L256 240Z" fill="var(--flag-palette-bright-red, #d80027)"/>
<path d="M16 256L0 256L96 160L96 176L16 256Z" fill="var(--flag-palette-bright-red, #d80027)"/>
<path d="M240 -6.99382e-07L256 0L160 96L160 80L240 -6.99382e-07Z" fill="var(--flag-palette-bright-red, #d80027)"/>
<path d="M306.09 144.687V267.131C306.09 326.775 384.009 345.051 384.009 345.051C384.009 345.051 461.928 326.775 461.928 267.131V144.687H306.09Z" fill="var(--flag-palette-light-blue, #338af3)"/>
<path d="M384.006 236.018C364.527 236.018 364.527 253.828 345.049 253.828C325.57 253.828 325.57 236.018 306.092 236.018V267.186C325.57 267.186 325.57 284.996 345.049 284.996C364.527 284.996 364.527 267.186 384.006 267.186C403.487 267.186 403.487 284.996 422.968 284.996C442.45 284.996 442.449 267.186 461.93 267.186V236.018C442.45 236.018 442.45 253.828 422.968 253.828C403.487 253.828 403.487 236.018 384.006 236.018Z" fill="var(--flag-palette-light-grey, #f3f3f3)"/>
<path d="M384.006 173.628C364.527 173.628 364.527 191.438 345.049 191.438C325.57 191.438 325.57 173.628 306.092 173.628V204.795C325.57 204.795 325.57 222.606 345.049 222.606C364.527 222.606 364.527 204.795 384.006 204.795C403.487 204.795 403.487 222.606 422.968 222.606C442.45 222.606 442.449 204.795 461.93 204.795V173.628C442.45 173.628 442.45 191.438 422.968 191.438C403.487 191.438 403.487 173.628 384.006 173.628Z" fill="var(--flag-palette-light-grey, #f3f3f3)"/>
<path fill-rule="evenodd" clip-rule="evenodd" d="M296.686 348.357C300.395 350.469 304.223 352.47 308.061 354.306L308.655 354.587L307.343 357.491L306.069 360.316L308.894 361.591C320.706 366.929 333.126 371.01 345.808 373.725C358.343 376.408 371.209 377.77 384.038 377.77C396.868 377.77 409.734 376.408 422.273 373.725C434.951 371.01 447.37 366.929 459.187 361.591L462.013 360.316L460.738 357.491L459.427 354.587L460.02 354.306C463.862 352.47 467.691 350.469 471.395 348.357L476.011 345.724L471.446 343.005C468.206 341.072 464.994 339.024 461.884 336.912C461.764 332.872 461.525 328.818 461.175 324.838L460.752 320.024L456.555 322.417C452.782 324.566 448.87 326.572 444.922 328.381L438.728 331.216L440.505 336.079C422.517 343.309 403.554 346.971 384.038 346.971C364.523 346.971 345.389 343.276 327.328 335.978L329.353 331.211L323.154 328.376C319.211 326.572 315.295 324.566 311.522 322.413L307.279 319.997L306.897 324.865C306.584 328.859 306.386 332.927 306.308 336.977C303.17 339.07 299.93 341.091 296.658 342.991L292.011 345.697L296.686 348.361L296.686 348.357Z" fill="var(--flag-palette-dark-yellow, #ffc635)"/>
</svg>

<svg xmlns="http://www.w3.org/2000/svg" width="512" height="512" fill="none"><path fill="var(--flag-palette-navy, #002266)" d="M0 0h512v512H0z"/><path fill="var(--flag-palette-navy, #002266)" d="M0 0h256v256H0z"/><path fill="var(--flag-palette-white, #eeeeee)" d="M232 256h24v-24L152 128 256 24V0h-24L128 104 24 0H0v24l104 104L0 232v24h24l104-104z"/><path fill="var(--flag-palette-white, #eeeeee)" d="M256 160V96h-96V0H96v96H0v64h96v96h64v-96z"/><path fill="var(--flag-palette-bright-red, #d80027)" d="M256 144v-32H144V0h-32v112H0v32h112v112h32V144z"/><path fill="var(--flag-palette-bright-red, #d80027)" d="M0 16V0l96 96H80zm256 224v16l-96-96h16zM16 256H0l96-96v16zM240 0h16l-96 96V80z"/><path fill="var(--flag-palette-light-blue, #338af3)" d="M306 144.7V267c0 59.7 78 78 78 78s78-18.3 78-78V144.7z"/><path fill="var(--flag-palette-light-grey, #f3f3f3)" d="M384 236c-19.5 0-19.5 17.8-39 17.8-19.4 0-19.4-17.8-39-17.8v31.2c19.6 0 19.6 17.8 39 17.8 19.5 0 19.5-17.8 39-17.8s19.5 17.8 39 17.8c19.4 0 19.4-17.8 39-17.8V236c-19.6 0-19.6 17.8-39 17.8-19.5 0-19.5-17.8-39-17.8m0-62.4c-19.5 0-19.5 17.8-39 17.8-19.4 0-19.4-17.8-39-17.8v31.2c19.6 0 19.6 17.8 39 17.8 19.5 0 19.5-17.8 39-17.8s19.5 17.8 39 17.8c19.4 0 19.4-17.8 39-17.8v-31.2c-19.6 0-19.6 17.8-39 17.8-19.5 0-19.5-17.8-39-17.8"/><path fill="var(--flag-palette-dark-yellow, #ffc635)" fill-rule="evenodd" d="m296.7 348.4 11.4 6 .6.2-1.4 2.9-1.2 2.8 2.8 1.3a183 183 0 0 0 150.3 0l2.8-1.3-1.3-2.8-1.3-3 .6-.2a178 178 0 0 0 11.4-6l4.6-2.6-4.6-2.7-9.5-6q-.2-6.2-.7-12.2l-.4-4.8-4.2 2.4a149 149 0 0 1-11.7 6l-6.2 2.8 1.8 4.9a151 151 0 0 1-113.2-.1l2-4.8-6.1-2.8q-6-2.7-11.7-6l-4.2-2.4-.4 4.9-.6 12q-4.7 3.3-9.6 6l-4.7 2.8z" clip-rule="evenodd"/></svg>
